X: 1
T: Prince Of Orange, The
M: 6/8
L: 1/8
R: jig
K: Dmaj
|: A | 
D2 F A2 d | faf ecA | B2 c d2 B | ABG FGE |
D2 F A2 d | f/g/af ecA | B2 d c/d/ec | d3- d2 :|
c/d/ | 
e2 e dcB | A2 A Ace | g2 e f2 d | cec Acd |
e/f/ge dcB | AcA Ace | g2 e f2 d | edc BAG |
F3 GFG | A2 d dcB | ABA AGF | E2 F GFE |
F^EF GFG | BA^G A3 | B/c/dB cec | d3- d2 ||
